; HEADER_BLOCK_START
; generated by AnycubicSlicerNext 1.3.9.2 on 2026-01-28 at 21:34:41
; total layer number: 144
; filament_density: 1.24
; filament_diameter: 1.75
; max_z_height: 28.80
; exclude_object: 1
; model_instances: 1
; source_info: {"models":[{"file_source":0,"mo_file_id":-1,"name":"Motor_holder_SO101_Wrist.stl_id_0_copy_0"}],"models_from":0,"plate_index":1,"slice_paras_process":1,"software_version":"AnycubicSlicerNext 1.3.9.2 20260122165201"}
; paint_info = [{"material_type":"PLA","paint_color":[105,164,255],"paint_index":0}]
; project_info = {"flush_multiplier":1.0,"flush_volumes_chan_multipliers":[1.0,1.0,1.0,1.0],"flush_volumes_matrix":[0.0],"flush_volumes_vector":[140.0,140.0]}
; flush_multiplier_calculate_by_acnext: 1
; test_mode: 0
; HEADER_BLOCK_END

; THUMBNAIL_BLOCK_START
; THUMBNAIL_BLOCK_END

; THUMBNAIL_BLOCK_START
; THUMBNAIL_BLOCK_END

; external perimeters extrusion width = 0.42mm
; perimeters extrusion width = 0.45mm
; infill extrusion width = 0.45mm
; solid infill extrusion width = 0.42mm
; top infill extrusion width = 0.42mm
; support material extrusion width = 0.42mm
; first layer extrusion width = 0.50mm

; EXECUTABLE_BLOCK_START
EXCLUDE_OBJECT_DEFINE NAME=Motor_holder_SO101_Wrist.stl_id_0_copy_0 CENTER=113.33,131.385 POLYGON=[[85.1344,120.622],[86.6623,115.778],[89.1344,113.485],[91.4711,112.562],[131.008,112.523],[134.237,113.955],[141.432,120.238],[141.522,131.836],[136.727,144.44],[133.016,150.336],[91.4711,148.869],[87.7814,146.933],[85.3471,142.696],[85.1344,120.622]]
M73 P0 R29.6 QuietR46.3 SportR26.4 ; NormalR1778.037s
M201 X20000 Y20000 Z1000 E20000
M203 X600 Y600 Z15 E600
M204 P20000 R20000 T20000
M205 X20.00 Y20.00 Z20.00 E20.00
;TYPE:Custom
G9111 bedTemp=60 extruderTemp=220
M117
M900 K0.051
; print_bed_min = 0,0
; print_bed_max = 255,255
; print_bed_size = 255,255
; first_layer_print_min = 83.7235,110.968
; first_layer_print_max = 139.534,150.443
; first_layer_print_size = 55.8109,39.4751
G90
G21
M83 ; use relative distances for extrusion
; EXECUTABLE_BLOCK_HEAD
; filament start gcode
M75 ; The first extruder is ready.
M106 S0
;LAYER_CHANGE
;Z:0.2
;HEIGHT:0.2
; BEFORE_LAYER_CHANGE 0 @ 0.2mm
G1 E-1 F3600
; AFTER_LAYER_CHANGE 0 @ 0.2mm
M204 S500
SET_VELOCITY_LIMIT SQUARE_CORNER_VELOCITY=9
; printing object "Motor_holder_SO101_Wrist.stl" id:0 copy 0
EXCLUDE_OBJECT_START NAME=Motor_holder_SO101_Wrist.stl_id_0_copy_0
G1 Z0.200 ; for object exclusion
G1 X94.549 Y147.636 F21000
G1 Z.6
G1 Z.2
G1 E1 F3600
;TYPE:Inner wall
;WIDTH:0.5
G1 F3000
G1 X93.156 Y147.636 E.05081
G1 X92.447 Y147.597 E.02592
G1 X91.766 Y147.486 E.02515
G1 X91.101 Y147.303 E.02519
G1 X90.457 Y147.048 E.02526
G1 X89.842 Y146.725 E.02534
G1 X89.263 Y146.338 E.02543
G1 X88.725 Y145.89 E.02554
G1 X88.235 Y145.385 E.02565
G1 X87.799 Y144.83 E.02575
G1 X87.421 Y144.231 E.02585
G1 X87.106 Y143.594 E.02595
G1 X86.857 Y142.925 E.02602
G1 X86.677 Y142.233 E.02609
G1 X86.61 Y141.8 E.01598
G1 X94.549 Y141.8 E.28967
G1 X94.549 Y147.596 E.21147
;WIPE_START
G1 X93.156 Y147.636 E-.69658
G1 X92.55 Y147.603 E-.30342
;WIPE_END
G1 X100.148 Y146.872 Z.6 F21000
G1 X133.884 Y143.625 Z.6
G1 Z.2
G1 E1 F3600
;TYPE:Outer wall
G1 F3000
G1 X133.884 Y141.16 E.08996
G1 X135.473 Y141.16 E.05798
G1 X135.473 Y120.612 E.7497
G1 X135.437 Y119.939 E.0246
G1 X135.326 Y119.265 E.02493
G1 X135.142 Y118.607 E.0249
G1 X134.888 Y117.975 E.02486
G1 X134.566 Y117.376 E.02481
G1 X134.181 Y116.818 E.02475
G1 X133.738 Y116.307 E.02468
G1 X133.242 Y115.85 E.02461
G1 X132.698 Y115.453 E.02455
G1 X132.115 Y115.121 E.02449
G1 X131.499 Y114.858 E.02443
G1 X130.858 Y114.668 E.02439
G1 X130.201 Y114.553 E.02436
G1 X129.545 Y114.515 E.02398
G1 X93.124 Y114.515 E1.32883
G1 X92.468 Y114.553 E.02398
G1 X91.811 Y114.668 E.02436
G1 X91.17 Y114.858 E.02439
G1 X90.554 Y115.121 E.02443
G1 X89.97 Y115.453 E.02449
G1 X89.427 Y115.85 E.02455
G1 X88.931 Y116.307 E.02461
G1 X88.488 Y116.818 E.02468
G1 X88.103 Y117.376 E.02475
G1 X87.781 Y117.975 E.02481
G1 X87.527 Y118.607 E.02486
G1 X87.343 Y119.265 E.0249
G1 X87.232 Y119.939 E.02493
G1 X87.195 Y120.612 E.0246
G1 X87.206 Y141.343 E.7564
G1 X95.007 Y141.343 E.2846
G1 X95.006 Y146.905 E.20295
G1 X128.663 Y146.905 E1.22802
G1 X128.658 Y143.598 E.12065
G1 X133.844 Y143.625 E.18925
;WIPE_START
G1 X133.877 Y141.625 E-1
;WIPE_END
G1 X132.727 Y147.636 Z.6 F21000
G1 Z.2
G1 E1 F3600
;TYPE:Inner wall
G1 F3000
G1 X129.122 Y147.636 E.13156
G1 X129.115 Y144.058 E.13054
G1 X134.342 Y144.085 E.19068
G1 X134.342 Y141.617 E.09005
G1 X135.931 Y141.617 E.05798
G1 X135.931 Y120.6 E.76683
G1 X135.892 Y119.889 E.02596
G1 X135.772 Y119.166 E.02675
G1 X135.575 Y118.46 E.02673
G1 X135.302 Y117.781 E.02669
G1 X134.957 Y117.138 E.02665
G1 X134.543 Y116.537 E.0266
G1 X134.066 Y115.988 E.02655
G1 X133.532 Y115.496 E.02649
G1 X132.947 Y115.068 E.02644
G1 X132.319 Y114.711 E.02639
G1 X131.654 Y114.427 E.02635
G1 X130.963 Y114.222 E.02631
G1 X130.253 Y114.098 E.02629
G1 X129.516 Y114.055 E.02696
G1 X129.523 Y113.79 E.0097
G1 X132.325 Y113.776 E.10225
G1 X132.383 Y113.802 E.00232
G1 X133.007 Y114.114 E.02545
G1 X133.657 Y114.532 E.0282
G1 X134.26 Y115.019 E.02828
G1 X134.806 Y115.566 E.02819
G1 X135.3 Y116.179 E.02873
G1 X135.725 Y116.839 E.02862
G1 X136.077 Y117.536 E.02852
G1 X136.36 Y118.28 E.02903
G1 X136.563 Y119.045 E.02888
G1 X136.685 Y119.829 E.02894
G1 X136.727 Y120.642 E.02971
G1 X136.727 Y140.811 E.7359
G1 X136.686 Y141.614 E.02934
G1 X136.568 Y142.381 E.0283
G1 X136.372 Y143.134 E.02839
G1 X136.101 Y143.863 E.02836
G1 X135.757 Y144.559 E.02834
G1 X135.346 Y145.209 E.02806
G1 X134.874 Y145.81 E.0279
G1 X134.338 Y146.363 E.02809
G1 X133.753 Y146.851 E.02781
G1 X132.727 Y147.537 E.045
G1 X132.727 Y147.596 E.00215
G1 X133.184 Y148.093 F21000
;TYPE:Outer wall
G1 F3000
G1 X93.144 Y148.093 E1.46092
G1 X92.397 Y148.052 E.02727
G1 X91.669 Y147.934 E.02695
G1 X90.956 Y147.737 E.02699
G1 X90.266 Y147.464 E.02705
G1 X89.608 Y147.119 E.02712
G1 X88.988 Y146.704 E.0272
G1 X88.414 Y146.225 E.0273
G1 X87.891 Y145.686 E.02739
G1 X87.425 Y145.094 E.02749
G1 X87.022 Y144.455 E.02758
G1 X86.686 Y143.775 E.02766
G1 X86.42 Y143.063 E.02773
G1 X86.229 Y142.326 E.02779
G1 X86.113 Y141.572 E.02783
G1 X86.073 Y140.801 E.02818
G1 X86.073 Y120.63 E.73593
G1 X86.113 Y119.859 E.02818
G1 X86.229 Y119.105 E.02783
G1 X86.42 Y118.368 E.02779
G1 X86.686 Y117.656 E.02773
G1 X87.022 Y116.976 E.02766
G1 X87.425 Y116.337 E.02758
G1 X87.891 Y115.745 E.02749
G1 X88.414 Y115.206 E.02739
G1 X88.988 Y114.727 E.0273
G1 X89.608 Y114.312 E.0272
G1 X90.266 Y113.967 E.02712
G1 X90.956 Y113.694 E.02705
G1 X91.669 Y113.497 E.02699
G1 X92.397 Y113.379 E.02695
G1 X93.144 Y113.338 E.02727
G1 X128.374 Y113.338 E1.28542
G1 X132.422 Y113.318 E.14768
G1 X132.579 Y113.388 E.00629
G1 X133.234 Y113.716 E.02672
G1 X133.925 Y114.161 E.03
G1 X134.566 Y114.679 E.03007
G1 X135.146 Y115.261 E.02996
G1 X135.671 Y115.911 E.0305
G1 X136.122 Y116.611 E.03038
G1 X136.496 Y117.352 E.03026
G1 X136.796 Y118.14 E.03077
G1 X137.011 Y118.951 E.03062
G1 X137.14 Y119.782 E.03067
G1 X137.184 Y120.63 E.031
G1 X137.184 Y140.823 E.73676
G1 X137.142 Y141.661 E.03061
G1 X137.017 Y142.474 E.03
G1 X136.809 Y143.272 E.0301
G1 X136.521 Y144.044 E.03007
G1 X136.156 Y144.783 E.03006
G1 X135.72 Y145.473 E.02978
G1 X135.218 Y146.111 E.02963
G1 X134.649 Y146.699 E.02984
G1 X134.027 Y147.218 E.02957
G1 X133.184 Y147.781 E.03697
G1 X133.184 Y148.053 E.00991
;WIPE_START
G1 X131.184 Y148.055 E-1
;WIPE_END
G1 Z.6 F21000
G1 X128.893 Y147.499 Z.6
G1 Z.2
G1 E1 F3600
;TYPE:Gap infill
;WIDTH:0.7735
G1 F3000
G1 X94.777 Y147.499 E1.98954
;WIPE_START
G1 X96.777 Y147.499 E-1
;WIPE_END
G1 X93.438 Y141.937 Z.6 F21000
G1 Z.2
G1 E1 F3600
;TYPE:Bottom surface
;WIDTH:0.523949
G1 F3000
G1 X94.207 Y142.706 E.04176
G1 X94.207 Y143.386 E.02612
G1 X92.963 Y142.143 E.06752
G1 X92.283 Y142.143 E.02612
G1 X94.206 Y144.066 E.10446
G1 X94.206 Y144.747 E.02612
G1 X91.603 Y142.143 E.14139
G1 X90.922 Y142.143 E.02612
G1 X94.206 Y145.427 E.17832
G1 X94.206 Y146.107 E.02612
G1 X90.242 Y142.143 E.21526
G1 X89.562 Y142.143 E.02612
G1 X94.206 Y146.787 E.25219
G1 X94.206 Y147.293 E.01942
G1 X94.032 Y147.293 E.0067
G1 X88.882 Y142.143 E.27966
G1 X88.201 Y142.143 E.02612
G1 X93.351 Y147.293 E.27965
G1 X92.643 Y147.265 E.02723
G1 X87.521 Y142.143 E.27812
G1 X87.01 Y142.143 E.01964
G1 X87.066 Y142.368 E.00892
G1 X91.851 Y147.153 E.25981
G1 X91.21 Y146.977 E.02552
G1 X90.854 Y146.837 E.01468
G1 X87.389 Y143.371 E.18817
G1 X87.721 Y144.063 E.02945
G1 X88.08 Y144.632 E.02585
G1 X88.484 Y145.147 E.02511
G1 X89.981 Y146.643 E.08128
G1 X90.354 Y146.71 F21000
;TYPE:Gap infill
;WIDTH:0.114735
G1 F3000
G1 X90.228 Y146.617 E.0009
;WIDTH:0.131701
G1 X90.101 Y146.523 E.00112
G1 E-.81101 F3600
;WIPE_START
G1 F3000
G1 X90.228 Y146.617 E-.18899
;WIPE_END
G1 X86.66 Y141.572 Z.6 F21000
G1 Z.2
G1 E1 F3600
;WIDTH:0.709562
G1 F3000
G1 X86.64 Y140.786 E.04182
G1 X86.636 Y120.588 E1.07484
G1 X86.678 Y119.86 E.03879
G1 X86.793 Y119.161 E.03769
G1 X86.96 Y118.538 E.03432
G1 X87.28 Y117.721 E.04673
G1 X87.612 Y117.098 E.03753
G1 X87.894 Y116.668 E.0274
;WIDTH:0.762048
G1 X88.326 Y116.125 E.03981
G1 X88.808 Y115.632 E.03962
G1 X89.338 Y115.194 E.03943
G1 X89.907 Y114.816 E.03925
G1 X90.511 Y114.501 E.03908
G1 X91.142 Y114.253 E.03894
G1 X91.795 Y114.073 E.03883
G1 X92.461 Y113.964 E.03876
G1 X93.16 Y113.927 E.04018
G1 X129.291 Y113.924 E2.07405
;WIPE_START
M73 P1 R29 QuietR45 SportR26 ; NormalR1760.103s
G1 X127.291 Y113.924 E-1
;WIPE_END
G1 X131.805 Y114.009 Z.6 F21000
G1 Z.2
G1 E1 F3600
;WIDTH:0.426961
G1 F3000
G1 X132.496 Y114.329 E.02333
G1 X132.794 Y114.487 E.01036
G1 X133.407 Y114.878 E.02228
G1 X133.787 Y115.169 E.01467
;WIDTH:0.40358
G1 X134.368 Y115.709 E.02283
G1 X134.965 Y116.421 E.02675
G1 X135.307 Y116.936 E.01778
G1 X135.661 Y117.603 E.02176
G1 X135.95 Y118.323 E.02233
;WIDTH:0.381952
G1 X136.171 Y119.128 E.02258
G1 X136.289 Y119.87 E.02034
G1 X136.329 Y120.652 E.0212
G1 X136.329 Y140.801 E.54529
G1 X136.309 Y141.576 E.02097
;WIDTH:0.333148
G1 X136.289 Y141.845 E.00626
G1 E-.67592 F3600
;WIPE_START
G1 F3000
G1 X136.309 Y141.576 E-.32408
;WIPE_END
G1 X135.279 Y141.754 Z.6 F21000
G1 Z.2
G1 E1 F3600
;TYPE:Bottom surface
;WIDTH:0.520167
G1 F3000
G1 X136.151 Y142.625 E.04695
G1 X136.001 Y143.15 E.0208
G1 X134.81 Y141.959 E.06416
G1 X134.684 Y141.959 E.00478
G1 X134.684 Y142.509 E.02093
G1 X135.817 Y143.642 E.06105
G1 X135.601 Y144.1 E.01931
G1 X134.684 Y143.184 E.04938
G1 X134.684 Y143.859 E.02571
G1 X135.364 Y144.538 E.03662
G1 X135.103 Y144.952 E.01864
G1 X134.579 Y144.429 E.02822
G1 X133.901 Y144.425 E.02584
G1 X134.811 Y145.335 E.04904
G1 X134.502 Y145.701 E.01825
G1 X133.222 Y144.422 E.06894
G1 X132.544 Y144.418 E.02584
G1 X134.17 Y146.044 E.08759
G1 X133.809 Y146.358 E.01823
G1 X131.866 Y144.415 E.10469
G1 X131.187 Y144.411 E.02584
G1 X133.43 Y146.654 E.12084
G1 X133.026 Y146.925 E.01854
G1 X130.509 Y144.408 E.1356
G1 X129.831 Y144.404 E.02584
G1 X132.621 Y147.195 E.15037
G1 X132.476 Y147.293 E.00669
G1 X132.044 Y147.293 E.01643
G1 X129.459 Y144.708 E.13926
G1 X129.46 Y145.384 E.02576
G1 X131.369 Y147.293 E.10284
G1 X130.694 Y147.293 E.02571
G1 X129.462 Y146.06 E.06641
G1 X129.463 Y146.736 E.02576
G1 X130.225 Y147.499 E.04107
; stop printing object Motor_holder_SO101_Wrist.stl id:0 copy 0
G1 Z0.200 ; for object exclusion
EXCLUDE_OBJECT_END NAME=Motor_holder_SO101_Wrist.stl_id_0_copy_0
M106 S194
;LAYER_CHANGE
;Z:0.4
;HEIGHT:0.2
; BEFORE_LAYER_CHANGE 1 @ 0.4mm
;WIPE_START
G1 F3000
G1 X129.463 Y146.736 E-.53903
G1 X129.462 Y146.06 E-.33805
G1 X129.635 Y146.234 E-.12293
;WIPE_END
; AFTER_LAYER_CHANGE 1 @ 0.4mm
M204 S10000
SET_VELOCITY_LIMIT SQUARE_CORNER_VELOCITY=20
M104 S210 ; set nozzle temperature
M140 S60 ; set bed temperature
; printing object "Motor_holder_SO101_Wrist.stl" id:0 copy 0
EXCLUDE_OBJECT_START NAME=Motor_holder_SO101_Wrist.stl_id_0_copy_0
SET_VELOCITY_LIMIT SQUARE_CORNER_VELOCITY=12
G1 X134.137 Y143.419 Z.8 F21000
G1 Z.4
G1 E1 F3600
M204 S6000
SET_VELOCITY_LIMIT SQUARE_CORNER_VELOCITY=15
;TYPE:Inner wall
;WIDTH:0.45
G1 F8843.478
G1 X134.137 Y141.412 E.06523
G1 X135.432 Y141.412 E.04208
G1 X135.432 Y120.605 E.6761
G1 X135.396 Y119.945 E.02147
G1 X135.285 Y119.277 E.022
G1 X135.103 Y118.626 E.02197
G1 X134.851 Y118 E.02194
G1 X134.533 Y117.406 E.0219
G1 X134.151 Y116.852 E.02186
G1 X133.711 Y116.345 E.02181
G1 X133.219 Y115.891 E.02176
G1 X132.679 Y115.497 E.02171
G1 X132.1 Y115.167 E.02166
G1 X131.488 Y114.906 E.02162
G1 X130.851 Y114.717 E.02159
G1 X130.197 Y114.603 E.02157
G1 X129.552 Y114.566 E.02099
G1 X93.117 Y114.566 E1.18394
G1 X92.472 Y114.603 E.02099
G1 X91.818 Y114.717 E.02157
G1 X91.181 Y114.906 E.02159
G1 X90.569 Y115.167 E.02162
G1 X89.99 Y115.497 E.02166
G1 X89.45 Y115.891 E.02171
G1 X88.958 Y116.345 E.02176
G1 X88.518 Y116.852 E.02181
G1 X88.136 Y117.406 E.02186
G1 X87.818 Y118 E.0219
G1 X87.566 Y118.626 E.02194
G1 X87.383 Y119.277 E.02197
G1 X87.273 Y119.945 E.022
G1 X87.237 Y120.605 E.02147
G1 X87.237 Y141.303 E.67259
G1 X95.037 Y141.303 E.25346
G1 X95.037 Y146.865 E.18074
G1 X128.631 Y146.865 E1.09163
G1 X128.631 Y143.431 E.11161
G1 F7200
G1 X128.631 Y143.41 E.00068
G1 F6840
G1 X129.903 Y143.412 E.04133
G1 F6480
G1 X131.174 Y143.414 E.0413
G1 F6120
G1 X132.445 Y143.416 E.0413
G1 X133.717 Y143.418 E.04133
G1 F8843.478
G1 X134.097 Y143.419 E.01233
M204 S10000
SET_VELOCITY_LIMIT SQUARE_CORNER_VELOCITY=12
G1 X133.744 Y143.026 F21000
M204 S5000
SET_VELOCITY_LIMIT SQUARE_CORNER_VELOCITY=15
;TYPE:Outer wall
;WIDTH:0.42
G1 F7800
G1 X133.744 Y141.02 E.0604
G1 X135.039 Y141.02 E.03898
G1 X135.039 Y140.979 E.00123
G1 F1800
M106 S255
G1 X135.039 Y140.81 E.00509
G1 F1320
G1 X135.039 Y139.706 E.03323
G1 X135.039 Y138.433 E.03832
G1 X135.039 Y137.161 E.03829
G1 X135.039 Y135.888 E.03832
G1 X135.039 Y135.015 E.02628
G1 X135.039 Y134.615 E.01204
G1 X135.039 Y133.742 E.02628
G1 X135.039 Y133.342 E.01204
G1 X135.039 Y132.47 E.02625
G1 X135.039 Y132.07 E.01204
G1 X135.039 Y131.197 E.02628
G1 X135.039 Y130.797 E.01204
G1 X135.039 Y129.924 E.02628
G1 X135.039 Y129.524 E.01204
G1 X135.039 Y128.652 E.02625
G1 X135.039 Y128.252 E.01204
G1 X135.039 Y126.979 E.03832
G1 X135.039 Y125.706 E.03832
G1 X135.039 Y124.434 E.03829
G1 X135.039 Y123.161 E.03832
G1 X135.039 Y121.888 E.03832
G1 X135.039 Y120.616 E.03829
G1 X135.005 Y119.988 E.01892
G1 X134.902 Y119.362 E.01909
G1 X134.731 Y118.753 E.01906
G1 X134.496 Y118.166 E.01903
G1 X134.197 Y117.61 E.01898
G1 X133.841 Y117.092 E.01893
G1 X133.429 Y116.619 E.01888
G1 X132.969 Y116.195 E.01883
G1 X132.466 Y115.827 E.01877
G1 F1260
G1 X131.925 Y115.519 E.01874
G1 X131.355 Y115.276 E.01865
G1 X130.761 Y115.1 E.01865
G1 X130.152 Y114.993 E.01861
G1 X129.54 Y114.958 E.01845
G1 X93.128 Y114.958 E1.09601
G1 X92.517 Y114.993 E.01842
G1 X91.908 Y115.1 E.01861
G1 X91.314 Y115.276 E.01865
G1 X90.744 Y115.519 E.01865
G1 X90.203 Y115.827 E.01874
G1 X89.7 Y116.195 E.01876
G1 F1320
G1 X89.239 Y116.619 E.01883
G1 X88.828 Y117.092 E.01888
G1 X88.471 Y117.61 E.01893
G1 X88.173 Y118.166 E.01898
G1 X87.937 Y118.753 E.01903
G1 X87.767 Y119.362 E.01906
G1 X87.664 Y119.988 E.01909
G1 X87.629 Y120.616 E.01892
G1 X87.629 Y130.764 E.30545
G1 F1380
G1 X87.63 Y140.911 E.30545
G1 X88.605 Y140.911 E.02935
G1 F1320
G1 X89.58 Y140.911 E.02935
G1 X90.555 Y140.911 E.02935
G1 F1260
G1 X91.53 Y140.911 E.02935
G1 X92.505 Y140.911 E.02935
G1 F1320
G1 X93.48 Y140.911 E.02935
G1 X94.455 Y140.911 E.02935
G1 F1200
G1 X95.43 Y140.911 E.02935
G1 X95.43 Y142.302 E.04187
G1 F1320
G1 X95.43 Y143.692 E.04184
G1 X95.43 Y145.083 E.04187
G1 F1380
G1 X95.43 Y146.473 E.04184
G1 X128.239 Y146.473 E.98758
G1 X128.239 Y145.617 E.02579
G1 X128.239 Y144.76 E.0258
G1 X128.239 Y143.903 E.0258
G1 F1116
G1 X128.239 Y143.046 E.02579
SET_VELOCITY_LIMIT SQUARE_CORNER_VELOCITY=20
;TYPE:Overhang wall
;WIDTH:0.409292
G1 F1080
G1 X128.239 Y143.017 E.00086
G1 X133.334 Y143.026 E.14902
SET_VELOCITY_LIMIT SQUARE_CORNER_VELOCITY=15
;TYPE:Outer wall
;WIDTH:0.42
G1 X133.534 Y143.026 E.00602
M106 S194
G1 F1800
G1 X133.703 Y143.026 E.00509
G1 F3421.986
G1 X133.704 Y143.026 E.00003
M204 S10000
